packages/lexical-website/static/img/stack-overflow.svg

<svg width="105" height="124" viewBox="0 0 105 124" fill="none" xmlns="http://www.w3.org/2000/svg">
<path fill-rule="evenodd" clip-rule="evenodd" d="M88 80H99V124H0V80H11V113H88V80Z" fill="#BBBBBB"/>
<path d="M22.9879 76.7299L77.0129 88.0849L79.2839 77.2849L25.2589 65.9249L22.9879 76.7299ZM30.1369 50.8609L80.1829 74.1689L84.8449 64.1599L34.7979 40.8519L30.1369 50.8609ZM43.9849 26.3079L86.4129 61.6389L93.4789 53.1539L51.0509 17.8239L43.9849 26.3079ZM71.3719 0.191895L62.5119 6.78189L95.4599 51.0819L104.32 44.4929L71.3719 0.191895ZM22 102H77V90.9999H22V102Z" fill="#F58025"/>
</svg>

<svg width="105" height="124" fill="none" xmlns="http://www.w3.org/2000/svg"><path fill-rule="evenodd" clip-rule="evenodd" d="M88 80h11v44H0V80h11v33h77V80Z" fill="#BBB"/><path d="m22.988 76.73 54.025 11.355 2.27-10.8-54.024-11.36-2.271 10.805Zm7.149-25.87L80.183 74.17l4.662-10.01-50.047-23.307-4.661 10.009Zm13.848-24.552 42.428 35.33 7.066-8.484-42.428-35.33-7.066 8.484ZM71.372.192l-8.86 6.59 32.948 44.3 8.86-6.59L71.372.193ZM22 102h55V91H22v11Z" fill="#F58025"/></svg>
